packages/blockchain-info-components/src/Images/img/wallet.svg

<svg fill="#fff" height="24" viewBox="0 0 24 24" width="24" xmlns="http://www.w3.org/2000/svg"><path d="m19.2141 7.28571h-13.4016c-.31078 0-.5625-.2637-.5625-.58928s.25172-.58929.5625-.58929h13.5c.3108 0 .5625-.2637.5625-.58928 0-.97638-.7555-1.76786-1.6875-1.76786h-12.9375c-1.24277 0-2.25 1.05519-2.25 2.35714v11.78576c0 1.3019 1.00723 2.3571 2.25 2.3571h13.9641c.985 0 1.7859-.793 1.7859-1.7679v-9.42853c0-.9749-.8009-1.76786-1.7859-1.76786zm-1.5891 7.66069c-.6212 0-1.125-.5278-1.125-1.1785 0-.6508.5038-1.1786 1.125-1.1786s1.125.5278 1.125 1.1786c0 .6507-.5038 1.1785-1.125 1.1785z"/></svg>

<svg width="24" height="24" viewBox="0 0 24 24" fill="white" xmlns="http://www.w3.org/2000/svg">
  <path d="M19.2141 7.28571H5.8125C5.50172 7.28571 5.25 7.02201 5.25 6.69643C5.25 6.37085 5.50172 6.10714 5.8125 6.10714H19.3125C19.6233 6.10714 19.875 5.84344 19.875 5.51786C19.875 4.54148 19.1195 3.75 18.1875 3.75H5.25C4.00723 3.75 3 4.80519 3 6.10714V17.8929C3 19.1948 4.00723 20.25 5.25 20.25H19.2141C20.1991 20.25 21 19.457 21 18.4821V9.05357C21 8.07867 20.1991 7.28571 19.2141 7.28571ZM17.625 14.9464C17.0038 14.9464 16.5 14.4186 16.5 13.7679C16.5 13.1171 17.0038 12.5893 17.625 12.5893C18.2462 12.5893 18.75 13.1171 18.75 13.7679C18.75 14.4186 18.2462 14.9464 17.625 14.9464Z" />
</svg>
